X:1
T: The Humors of Old Knockaney
C:
R:Reel
Q: 232
K:Am
M:4/4
L:1/8
|:c2 e^f g2 ee|c2 eA dB GB|c2 e^f g2 eA|dB GB BA A2|
c2 e^f g2 eA|c2 eA dB GB|ce e^f ge af|ge dB BA A2:|
|:AB ((3cBA) eA ((3cBA)|G3B dB GB|AB ((3cBA) eA ((3cBA)|dB GB BA A2|
AB ((3cBA) eA ((3cBA) |G3B dB GB|cc cA BB BA|GE DB, A,A, A,2:|
